pix/pdf.svg

<svg xmlns="http://www.w3.org/2000/svg" viewBox="0 0 210 250" enable-background="new 0 0 210 250"><circle fill="#FF6B69" cx="104.8" cy="125.2" r="97.5"/><path fill="#F5F5F5" d="M66.8 67.7c-3.7 0-6.6 2.9-6.6 6.6v105.2c0 3.7 2.9 6.6 6.6 6.6h75.6c3.7 0 6.6-2.9 6.6-6.6v-81.3l-31.7-30.5h-50.5z"/><path fill="#E1E1E1" d="M148.8 98.3h-25c-3.7 0-6.6-2.9-6.6-6.6v-24l31.6 30.6z"/><path fill="#C9C9C8" d="M106.4 147.7h-34.4c-1.1 0-2 .9-2 2s.9 2 2 2h34.3c1.1 0 2-.9 2-2 .1-1.1-.8-2-1.9-2zM139.6 107.2c0 1.1-.9 2-2 2h-65.6c-1.1 0-2-.9-2-2s.9-2 2-2h65.8c.9 0 1.8.9 1.8 2zM139.6 117.9c0 1.1-.9 2-2 2h-65.6c-1.1 0-2-.9-2-2s.9-2 2-2h65.8c.9.1 1.8 1 1.8 2zM139.6 128.2c0 1.1-.9 2-2 2h-65.6c-1.1 0-2-.9-2-2s.9-2 2-2h65.8c.9 0 1.8.9 1.8 2zM139.6 138.9c0 1.1-.9 2-2 2h-65.6c-1.1 0-2-.9-2-2s.9-2 2-2h65.8c.9.1 1.8 1 1.8 2z"/></svg>

<?xml version="1.0" encoding="utf-8"?>
<!-- Generator: Adobe Illustrator 18.0.0, SVG Export Plug-In . SVG Version: 6.00 Build 0)  -->
<!DOCTYPE svg PUBLIC "-//W3C//DTD SVG 1.1//EN" "http://www.w3.org/Graphics/SVG/1.1/DTD/svg11.dtd">
<svg version="1.1" id="Layer_1" xmlns="http://www.w3.org/2000/svg" xmlns:xlink="http://www.w3.org/1999/xlink" x="0px" y="0px"
	 viewBox="0 0 210 250" enable-background="new 0 0 210 250" xml:space="preserve">
<g>
	<circle fill="#FF6B69" cx="104.8" cy="125.2" r="97.5"/>
	<g>
		<path fill="#F5F5F5" d="M66.8,67.7c-3.7,0-6.6,2.9-6.6,6.6v105.2c0,3.7,2.9,6.6,6.6,6.6h75.6c3.7,0,6.6-2.9,6.6-6.6V98.2
			l-31.7-30.5H66.8z"/>
		<path fill="#E1E1E1" d="M148.8,98.3h-25c-3.7,0-6.6-2.9-6.6-6.6V67.7L148.8,98.3z"/>
		<path fill="#C9C9C8" d="M106.4,147.7H72c-1.1,0-2,0.9-2,2s0.9,2,2,2h34.3c1.1,0,2-0.9,2-2C108.4,148.6,107.5,147.7,106.4,147.7z"
			/>
		<path fill="#C9C9C8" d="M139.6,107.2c0,1.1-0.9,2-2,2H72c-1.1,0-2-0.9-2-2l0,0c0-1.1,0.9-2,2-2h65.8
			C138.7,105.2,139.6,106.1,139.6,107.2L139.6,107.2z"/>
		<path fill="#C9C9C8" d="M139.6,117.9c0,1.1-0.9,2-2,2H72c-1.1,0-2-0.9-2-2l0,0c0-1.1,0.9-2,2-2h65.8
			C138.7,116,139.6,116.9,139.6,117.9L139.6,117.9z"/>
		<path fill="#C9C9C8" d="M139.6,128.2c0,1.1-0.9,2-2,2H72c-1.1,0-2-0.9-2-2l0,0c0-1.1,0.9-2,2-2h65.8
			C138.7,126.2,139.6,127.1,139.6,128.2L139.6,128.2z"/>
		<path fill="#C9C9C8" d="M139.6,138.9c0,1.1-0.9,2-2,2H72c-1.1,0-2-0.9-2-2l0,0c0-1.1,0.9-2,2-2h65.8
			C138.7,137,139.6,137.9,139.6,138.9L139.6,138.9z"/>
	</g>
</g>
</svg>
